frontend/public/svg/Contact/Circle.svg

<svg width="792" height="519" viewBox="0 0 792 519" fill="none" xmlns="http://www.w3.org/2000/svg">
<path d="M719.142 0C700.245 0 683.029 25.6175 670.098 67.6584C653.066 25.6175 630.436 0 605.572 0C580.708 0 558.394 25.2769 541.414 66.794C516.866 25.2769 484.353 0 448.687 0C402.849 0 362.241 41.7528 337.035 106.058C296.9 41.7528 232.191 0 159.228 0C80.4832 0 11.3843 48.5894 -27.6202 121.696C-73.7213 48.5894 -155.357 0 -248.4 0C-392.328 0 -509 116.274 -509 259.711C-509 403.147 -392.328 519.421 -248.4 519.421C-155.357 519.421 -73.7213 470.832 -27.6202 397.725C11.4105 470.832 80.4832 519.421 159.228 519.421C232.217 519.421 296.9 477.668 337.035 413.363C362.241 477.668 402.875 519.421 448.687 519.421C484.353 519.421 516.866 494.144 541.414 452.627C558.394 494.144 580.892 519.421 605.572 519.421C630.252 519.421 653.066 493.804 670.098 451.763C683.055 493.804 700.245 519.421 719.142 519.421C759.382 519.421 792 403.147 792 259.711C792 116.274 759.382 0 719.142 0Z" fill="#CBFF00"/>
</svg>

<?xml version="1.0" encoding="UTF-8"?>
<svg id="Layer_1" xmlns="http://www.w3.org/2000/svg" version="1.1" viewBox="0 0 792 519">
  <!-- Generator: Adobe Illustrator 29.8.2, SVG Export Plug-In . SVG Version: 2.1.1 Build 3)  -->
  <defs>
    <style>
      .st0 {
        fill: #dedc00;
      }
    </style>
  </defs>
  <path class="st0" d="M719.1,0C700.2,0,683,25.6,670.1,67.7,653.1,25.6,630.4,0,605.6,0s-47.2,25.3-64.2,66.8C516.9,25.3,484.4,0,448.7,0s-86.4,41.8-111.7,106.1C296.9,41.8,232.2,0,159.2,0S11.4,48.6-27.6,121.7C-73.7,48.6-155.4,0-248.4,0-392.3,0-509,116.3-509,259.7s116.7,259.7,260.6,259.7,174.7-48.6,220.8-121.7c39,73.1,108.1,121.7,186.8,121.7s137.7-41.8,177.8-106.1c25.2,64.3,65.8,106.1,111.7,106.1s68.2-25.3,92.7-66.8c17,41.5,39.5,66.8,64.2,66.8s47.5-25.6,64.5-67.7c13,42,30.1,67.7,49,67.7,40.2,0,72.9-116.3,72.9-259.7S759.4,0,719.1,0Z"/>
</svg>
